X: 3
T: Three Flowers, The
Z: ceolachan
S: https://thesession.org/tunes/9088#setting24360
R: barndance
M: 4/4
L: 1/8
K: Gmaj
|: Bc |d2 ^cd B2 ge | f2 f2 A2 AB | c2 A2 G2 F2 | G>A BA G2 A/B/c |
d2 d2 e2 e/f/g | ab/a/ ga b2 ba | g2 e2 d>e fd | g6 Bc |
d2 B/c/d e2 g/f/e | a2 ga b3 a | g2 e2 d2 f/e/d | g2 g>f g2 G/A/B/c/ |
d2 d2 Bc/B/ g>e | f2 ef A3 B | c3 A G2 F2 | G6 :|
